polaris-icons/icons/newicons/CircleUpMajor.svg

<svg width="20" height="20" viewBox="0 0 20 20" fill="none" xmlns="http://www.w3.org/2000/svg">
<path d="M9.25 14C9.25 14.4142 9.58579 14.75 10 14.75C10.4142 14.75 10.75 14.4142 10.75 14L10.75 8.21299L12.7413 10.0511C13.0457 10.3321 13.5202 10.3131 13.8011 10.0087C14.0821 9.70434 14.0631 9.22985 13.7587 8.9489L10.5087 5.9489C10.2214 5.6837 9.77859 5.6837 9.49129 5.9489L6.24129 8.9489C5.93692 9.22985 5.91794 9.70434 6.1989 10.0087C6.47985 10.3131 6.95435 10.3321 7.25871 10.0511L9.25 8.21299L9.25 14Z" fill="black"/>
<path fill-rule="evenodd" clip-rule="evenodd" d="M18 10C18 14.4183 14.4183 18 10 18C5.58172 18 2 14.4183 2 10C2 5.58172 5.58172 2 10 2C14.4183 2 18 5.58172 18 10ZM16.5 10C16.5 13.5899 13.5899 16.5 10 16.5C6.41015 16.5 3.5 13.5899 3.5 10C3.5 6.41015 6.41015 3.5 10 3.5C13.5899 3.5 16.5 6.41015 16.5 10Z" fill="black"/>
</svg>

<svg viewBox="0 0 20 20" fill="none" xmlns="http://www.w3.org/2000/svg"><path d="M9.25 14a.75.75 0 0 0 1.5 0v-5.787l1.991 1.838a.75.75 0 1 0 1.018-1.102l-3.25-3a.75.75 0 0 0-1.018 0l-3.25 3a.75.75 0 1 0 1.018 1.102l1.991-1.838v5.787Z" fill="#000"/><path fill-rule="evenodd" clip-rule="evenodd" d="M18 10a8 8 0 1 1-16 0 8 8 0 0 1 16 0Zm-1.5 0a6.5 6.5 0 1 1-13 0 6.5 6.5 0 0 1 13 0Z" fill="#000"/></svg>
